X:1
T:35
T:35
T:Études enfantines op. 37
T:Henry Lemoine
C:Henry Lemoine
%%score { 1 | 2 }
L:1/8
Q:3/8=95
M:6/8
K:C
V:1 treble nm="Piano" snm="Pno."
V:2 bass 
V:1
!p!"^Allegretto" z .!1!!3!!5![ceg].!1!!3!!5![Gce] z .[ceg].[Gce] | %1
 z .!1!!3!!5![cfa].!1!!2!!5![Acf] z .[cfa].[Acf] | z .[ceg].[Gce] z .[ceg].[Gce] | %3
 z!<(! .!1!!5![Bg].!1!!4![Bf] .!1!!3![Be].!1!!4![Bf]!<)!.!1!!2![Bd] | %4
!mf! z .!1!!3!!5![ceg].!1!!3!!5![Gce] z .[ceg].[Gce] | %5
 z .!1!!3!!5![cfa].!1!!2!!5![Acf] z .[cfa].[Acf] |"_cresc." z .!3!!5![eg].[ce] z .!5![df].[Bd] | %7
!f! .c.[Gc].[Ge] .[Gc] z z!fine! |]!mf! .[dgb] z z .[Bdg] z z | %9
!f! z!>(! .!1!!4![da].!1!!3![dg] .!1!!2![d^f].[dg].[da]!>)! |!mf! .[dgb] z z .[Bdg] z z | %11
!f! z!>(! .!1!!4![da].!1!!3![dg] .!1!!2![d^f].[dg].[da]!>)! | %12
!p! .[dg] (!>!a.g) .!2!!3![_e^f].!2!!4![eg].!2!!5![ea] | %13
 .[dg] (!>!a.g) .!2!!3![_e^f].!2!!4![eg].!2!!5![ea] | %14
"_poco rallentando" .[dg] (!>!a.g) z"_diminuendo" (!>![da].g) | %15
 z (!>![ca].g) z (!>![Ba].g)!D.C.! |] %16
V:2
 .C, z z .!4!!2!!1![G,CE] z z | .C, z z .!4!!2!!1![A,CF] z z | .C, z z .!4!!2!!1![G,CE] z z | %3
 .G,, z .!5!!2!!1![G,DF] .[G,DF].[G,DF].[G,DF] | .C, z z .!4!!2!!1![G,CE] z z | %5
 .C, z z .!4!!2!!1![A,CF] z z | .G,, z .!5!!3!!1![G,CE] .[G,DF] z .[G,DF] | %7
 .[CE].[CE].[CE] .[CE] z z |] %8
 z .!5!!3!!1![G,,B,,D,].!3!!5!!1![B,,D,G,] z .[B,,D,G,].!5!!2!!1![D,G,B,] | %9
 .!^!!5!!2!!1![D,A,C]2 .[D,A,C] .[D,A,C].[D,A,C].[D,A,C] | %10
 z .!5!!3!!1![G,,B,,D,].!3!!5!!1![B,,D,G,] z .[B,,D,G,].!5!!2!!1![D,G,B,] | %11
 .!^!!5!!2!!1![D,A,C]2 .[D,A,C] .[D,A,C].[D,A,C].[D,A,C] | %12
 .[G,B,] z z[K:treble] .!4!!1![Gc].[Gc].[Gc] | .[GB] z z .!4!!1![Gc].[Gc].[Gc] | %14
 .[GB] z z[K:bass] .[G,B,D] z z | .[G,CE] z z .[G,D=F] z z |] %16

